dist/img/socials/youtube.svg

<svg width="44" height="30" viewBox="0 0 44 30" fill="none" xmlns="http://www.w3.org/2000/svg">
<path fill-rule="evenodd" clip-rule="evenodd" d="M4.52498 29.1136C3.74045 28.8815 3.02463 28.4686 2.43791 27.9097C1.8512 27.3508 1.41081 26.6624 1.15389 25.9025C-0.314158 21.9747 -0.749137 5.57386 2.07822 2.33615C3.01922 1.2829 4.34778 0.634437 5.77554 0.531518C13.3605 -0.264641 36.795 -0.158485 39.4864 0.796906C40.2434 1.03665 40.935 1.44051 41.5094 1.97824C42.0838 2.51598 42.5261 3.17363 42.8031 3.90193C44.4071 7.96234 44.4614 22.7178 42.5856 26.619C42.088 27.6345 41.2549 28.4571 40.2204 28.9544C37.393 30.3344 8.27667 30.3079 4.52498 29.1136ZM16.5684 21.4174L30.1615 14.5174L16.5684 7.56426V21.4174Z" fill="#383838"/>
</svg>

<svg xmlns="http://www.w3.org/2000/svg" width="44" height="30" fill="none"><path fill="#383838" fill-rule="evenodd" d="M4.525 29.114a5.138 5.138 0 0 1-2.087-1.204 4.974 4.974 0 0 1-1.284-2.008C-.314 21.976-.75 5.575 2.078 2.337A5.485 5.485 0 0 1 5.776.532c7.585-.797 31.019-.69 33.71.265a5.31 5.31 0 0 1 2.023 1.181 5.14 5.14 0 0 1 1.294 1.924c1.604 4.06 1.658 18.816-.217 22.717a5.077 5.077 0 0 1-2.366 2.335c-2.827 1.38-31.943 1.354-35.695.16Zm12.043-7.697 13.593-6.9-13.593-6.953v13.853Z" clip-rule="evenodd"/></svg>
